!!!!SEGMENT: pl-wtm--r-1139--002_dobrzynski-ignacy-feliks--grand-trio-op-17-scherzo.krn
!!!cenid: 18xx:1741
!!!COM: Dobrzyński, Ignacy Feliks
!!!COM-rismid: pe30020642
!!!CDT: 1807/02/15-1867/10/09
!!!CNT: Polish
!!!OPR: Grand Trio op. 17
!!!OTL: Scherzo
!!!OMV: 002
!!!PDT: 1830
!!!AGN: Secular
!!!SMS-siglum: PL-Wtm
!!!SMS-shelfmark: R 1139
!!!SMS-shelfwork: 001-002 M
!!!SMS-variant:
!!!SMS-altvar:
!!!NIFC-rismid: 1001060239
!!!URL-scan: http://repozytorium.nifc.pl/skany/pl-wtm-nut--r1139
!!!ONB-nifc: UWAGA: części Tria: 1. Allegro moderato, 2. Scherzo, 3. Adagio, 4. Rondo
!!!OMD: Allo
**kern	**dynam	**kern	**dynam	**kern	**kern	**dynam
*part3	*part3	*part2	*part2	*part1	*part1	*part1
*staff4	*	*staff3	*	*staff2	*staff1	*
*I"Vcello	*	*I"Violino	*	*I"Piano forte	*	*
*I'vlc	*	*I'vl	*	*I'pf	*	*
*clefF4	*	*clefG2	*	*clefF4	*clefG2	*
*k[]	*	*k[]	*	*k[]	*k[]	*
*a:	*	*a:	*	*a:	*a:	*
*M3/4	*	*M3/4	*	*M3/4	*M3/4	*
*>[A,A,B,C,D,D,E,E1,E,E2,F,A,A,B,G,H,H,I]	*	*>[A,A,B,C,D,D,E,E1,E,E2,F,A,A,B,G,H,H,I]	*	*>[A,A,B,C,D,D,E,E1,E,E2,F,A,A,B,G,H,H,I]	*>[A,A,B,C,D,D,E,E1,E,E2,F,A,A,B,G,H,H,I]	*
*>A	*	*>A	*	*>A	*>A	*
*	*	*	*	*clefG2	*	*
!	!	!	!	!	!LO:TX:a:B:t=LO:TX:a:t=P:problem:dopisane ołówkiem [half.] = 84	!
4r	.	4r	.	4ee\	4eee\	.
=1	=1	=1	=1	=1	=1	=1
!	!	!	!	!LO:TX:a:t=8va	!	!
2.r	.	2.r	.	8dd#X\Lyy	8ddd#X\L	.
.	.	.	.	8ee\yy	8eee\	.
.	.	.	.	8ddn\yy	8dddn\	.
.	.	.	.	8cc\yy	8ccc\	.
.	.	.	.	8b\yy	8bb\	.
.	.	.	.	8cc\Jyy	8ccc\J	.
=2	=2	=2	=2	=2	=2	=2
2.r	.	2.r	.	8b/Lyy	8bb\L	.
.	.	.	.	8a/yy	8aa\	.
.	.	.	.	8g#X/yy	8gg#X\	.
.	.	.	.	8a/yy	8aa\	.
.	.	.	.	8gn/yy	8ggn\	.
.	.	.	.	8f/Jyy	8ff\J	.
=3	=3	=3	=3	=3	=3	=3
2.r	.	2.r	.	[>2.e/yy	[2.ee\	.
=4	=4	=4	=4	=4	=4	=4
2.ryy	.	2.ryy	.	4e/]yy	4ee\]	.
.	.	.	.	8c/Lyy	8cc\L	.
.	.	.	.	8A/Jyy	8a\J	.
.	.	.	.	[>4E/yy	[>4e/	.
=5	=5	=5	=5	=5	=5	=5
2.ryy	.	2.ryy	.	4E/]yy	4e/]	.
.	.	.	.	8A/Lyy	8a/L	.
.	.	.	.	8c/Jyy	8cc/J	.
.	.	.	.	[>4e/yy	[4ee\	.
=6	=6	=6	=6	=6	=6	=6
2.ryy	.	2.ryy	.	8e/L]yy	8ee\L]	.
.	.	.	.	8d/yy	8dd\	.
.	.	.	.	8c/yy	8cc\	.
.	.	.	.	8B/yy	8b\	.
.	.	.	.	8c/yy	8cc\	.
.	.	.	.	8A/Jyy	8a\J	.
*	*	*	*	*	*Xrep	*
=7	=7	=7	=7	=7	=7	=7
!	!	!	!	!LO:CL:ed	!	!
*	*	*	*	*clefF4	*	*
2.ryy	.	2.ryy	.	2.E\	2.e/	.
=8	=8	=8	=8	=8	=8	=8
!	!	!	!	!	!LO:TX:b:t=P:problem:diminuendolike accent	!
2.ryy	.	4r	.	2.D/	2.f 2.B 2.G^/	.
.	.	8f#/L	.	.	.	.
.	.	8g/	.	.	.	.
.	.	8a/	.	.	.	.
.	.	8b/J	.	.	.	.
=9	=9	=9	=9	=9	=9	=9
2.ryy	.	4cc\	.	4C/	4e 4c 4G/	p
.	.	(8dd'\L	.	4C/	4g 4e 4c/	.
.	.	8ee'\	.	.	.	.
.	.	8ff'\	.	4C/	4g 4e 4c/	.
.	.	8gg'\J)	.	.	.	.
=10	=10	=10	=10	=10	=10	=10
*	*	*	*	*rep	*	*
(8F'\L	.	2aa^<\	.	4C/	4a 4f 4c/	.
8E'\	.	.	.	.	.	.
8F'\	.	.	.	4C/	4a 4f 4c/	.
8G'\	.	.	.	.	.	.
8A'\	.	4r	.	4C/	4a 4f 4c/	.
8B'\J)	.	.	.	.	.	.
*	*	*	*	*Xrep	*	*
=11	=11	=11	=11	=11	=11	=11
*	*	*	*	*rep	*	*
2c\	.	4cc\	.	4C/	4g 4e 4c/	.
*	*	*	*	*	*rep	*
.	.	(8dd'\L	.	4C/	4g 4e 4c/	.
*	*	*	*	*	*Xrep	*
.	.	8ee'\	.	.	.	.
*	*	*	*	*	*rep	*
4r	.	8ff'\	.	4C/	4g 4e 4c/	.
.	.	8gg'\J)	.	.	.	.
*	*	*	*	*Xrep	*Xrep	*
=12	=12	=12	=12	=12	=12	=12
*	*	*	*	*rep	*	*
8F\L	.	2aa^<\	.	4C/	4a 4f 4c/	.
8E\	.	.	.	.	.	.
*	*	*	*	*	*rep	*
8F\	.	.	.	4C/	4a 4f 4c/	.
8G\	.	.	.	.	.	.
8A\	.	4r	.	4C/	4a 4f 4c/	.
8B\J	.	.	.	.	.	.
*	*	*	*	*Xrep	*Xrep	*
=13	=13	=13	=13	=13	=13	=13
*	*	*	*	*rep	*	*
2c\	.	4gg\	.	4C/	4g 4e 4c/	.
.	.	(8aa'\L	.	4C/	4g 4e 4c/	.
.	.	8bb'\	.	.	.	.
4r	.	8ccc'\	.	4C/	4g 4e 4c/	.
.	.	8ddd'\J)	.	.	.	.
*	*	*	*	*Xrep	*	*
=14	=14	=14	=14	=14	=14	=14
2.r	.	4eee\	.	4C/	4g 4e 4c/	.
.	.	8ddd'\L	.	4F#X\	4a 4e-X 4c/	.
.	.	8ccc'\	.	.	.	.
.	.	8bb'\	.	4F#\	4a 4e- 4c/	.
.	.	8aa'\J	.	.	.	.
=15	=15	=15	=15	=15	=15	=15
2.r	.	8gg\L	.	4G\	4g 4en 4c/	.
.	.	8ff#X\	.	.	.	.
.	.	8ffn\	.	4GG/	4g 4e 4c/	.
.	.	8ee\	.	.	.	.
.	.	8dd\	.	4GG/	4g 4e 4c/	.
.	.	8cc\J	.	.	.	.
=16	=16	=16	=16	=16	=16	=16
2.r	.	8b/L	.	4GG/	4g 4f 4B/	.
.	.	8a/	.	.	.	.
*	*	*	*	*rep	*rep	*
.	.	8g/	.	4GG/	4g 4f 4B/	.
.	.	8f/	.	.	.	.
.	.	8e/	.	4GG/	4g 4f 4B/	.
.	.	8d/J	.	.	.	.
*	*	*	*	*Xrep	*Xrep	*
*	*	*	*	*	*X	*
=17	=17	=17	=17	=17	=17	=17
!LO:TX:b:t=piz&colon;	!	!	!	!	!	!
4CC/	.	4c/	.	4C\	4g 4e 4c/	.
4r	.	4r	.	4G 4E 4C\	(8dddL 8dd'\	.
.	.	.	.	.	8eee 8ee'\	.
4r	.	4r	.	4G 4E 4C\	8fff 8ff'\	.
.	.	.	.	.	8gggJ 8gg'\)	.
!!LO:LB:g=original
=18	=18	=18	=18	=18	=18	=18
4CC/	.	(8f'/L	.	4A 4F 4C\	4aaa 4aa\	.
.	.	8e'/	.	.	.	.
*	*	*	*	*rep	*	*
4r	.	8f'/	.	4A 4F 4C\	4r	.
*	*	*	*	*Xrep	*	*
.	.	8g'/	.	.	.	.
*	*	*	*	*rep	*	*
4r	.	8a'/	.	4A 4F 4C\	4r	.
.	.	8b'/J	.	.	.	.
*	*	*	*	*Xrep	*	*
=19	=19	=19	=19	=19	=19	=19
*rep	*	*	*	*	*8va	*
!	!	!	!	!	!LO:TX:a:t=con 8va	!
4CC/	.	2cc\)	.	4G 4E 4C\	4ccc\	.
*	*	*	*	*rep	*	*
4r	.	.	.	4G 4E 4C\	8ddd\L	.
*	*	*	*	*Xrep	*	*
.	.	.	.	.	8eee\	.
*	*	*	*	*rep	*	*
4r	.	4r	.	4G 4E 4C\	8fff\	.
.	.	.	.	.	8ggg\J	.
*Xrep	*	*	*	*Xrep	*	*
=20	=20	=20	=20	=20	=20	=20
*rep	*	*	*	*	*	*
4CC/	.	8f/L	.	4A 4F 4C\	2aaa\	.
.	.	8e/	.	.	.	.
*	*	*	*	*rep	*	*
4r	.	8f/	.	4A 4F 4C\	.	.
*	*	*	*	*Xrep	*	*
.	.	8g/	.	.	.	.
*	*	*	*	*rep	*	*
4r	.	8a/	.	4A 4F 4C\	4r	.
.	.	8b/J	.	.	.	.
*Xrep	*	*	*	*Xrep	*	*
=21	=21	=21	=21	=21	=21	=21
*rep	*	*	*	*	*	*
4CC/	.	2cc\	.	4G 4E 4C\	4ggg\	.
*	*	*	*	*rep	*	*
4r	.	.	.	4G 4E 4C\	8eeee'\L	.
*	*	*	*	*Xrep	*	*
.	.	.	.	.	8dddd'\	.
*	*	*	*	*rep	*	*
4r	.	4r	.	4G 4E 4C\	8cccc'\	.
.	.	.	.	.	8bbb'\J	.
*Xrep	*	*	*	*Xrep	*	*
=22	=22	=22	=22	=22	=22	=22
2.r	.	2.r	.	4FF/	8aaa'\L	.
.	.	.	.	.	8ggg'\	.
.	.	.	.	4A 4F\	8fff'\	.
.	.	.	.	.	8eee'\	.
.	.	.	.	4A 4F\	8ddd'\	.
.	.	.	.	.	8ccc'\J	.
=23	=23	=23	=23	=23	=23	=23
2.r	.	2.r	.	4GG/	8bb'/L	.
.	.	.	.	.	8aa'/	.
.	.	.	.	4F 4BB 4GG\	8gg'/	.
.	.	.	.	.	8ff'/	.
.	.	.	.	4F 4BB 4GG\	8ee'/	.
.	.	.	.	.	8dd'/J	.
=24	=24	=24	=24	=24	=24	=24
4r	.	4r	.	4E 4C\	4cc'/	.
4r	.	4r	.	4ryy	4r	.
*	*	*	*	*	*X8va	*
=:|!	=:|!	=:|!	=:|!	=:|!	=:|!	=:|!
*>B	*	*>B	*	*>B	*>B	*
*	*	*	*	*	*rep	*
!	!	!	!	!LO:TX:a:t=8va	!	!
4r	.	4r	.	4g\yy	4gg\	.
=25	=25	=25	=25	=25	=25	=25
2.r	.	2.ryy	.	8f#X\Lyy	8ff#X\L	.
.	.	.	.	8g\yy	8gg\	.
.	.	.	.	8fn\yy	8ffn\	.
.	.	.	.	8e\yy	8ee\	.
.	.	.	.	8d#X\yy	8dd#X\	.
.	.	.	.	8e\Jyy	8ee\J	.
=26	=26	=26	=26	=26	=26	=26
2.r	.	2.ryy	.	8dn\Lyy	8ddn\L	.
.	.	.	.	8c\yy	8cc\	.
.	.	.	.	8B\yy	8b\	.
.	.	.	.	8c\yy	8cc\	.
.	.	.	.	8B\yy	8b\	.
.	.	.	.	8A\Jyy	8a\J	.
*	*	*	*	*	*Xrep	*
=27	=27	=27	=27	=27	=27	=27
2.r	.	[>2.g/	fp	2.G\	2.g/	.
=28	=28	=28	=28	=28	=28	=28
!	!	!	!	!	!LO:S:s=2:note:problem:note-level slur	!
2.r	.	4g/]	.	2.GG/	(2.f (>2.B [2.G/	.
.	.	(8b/L	.	.	.	.
.	.	8dd/J	.	.	.	.
.	.	[4gg\	.	.	.	.
=29	=29	=29	=29	=29	=29	=29
2.r	.	4gg\])	.	2.C/	2.e) 2.c) 2.G/_	.
.	.	(8ee\L	.	.	.	.
.	.	8cc\J	.	.	.	.
.	.	[>4g/	.	.	.	.
=30	=30	=30	=30	=30	=30	=30
2.r	.	4g/])	.	2.GG/	2.f 2.B 2.G/]	.
.	.	(8b/L	.	.	.	.
.	.	8dd/J	.	.	.	.
.	.	4gg\	.	.	.	.
=31	=31	=31	=31	=31	=31	=31
!	!	!	!	!LO:TX:t=P:problem:mixed beam	!	!
2.r	.	4cc\)	.	8C\L	8eL 8G/	.
.	.	.	.	8E\	8e/	.
.	.	4r	.	8G\	8g/	.
*	*	*	*	*clefG2	*	*
.	.	.	.	8c/	8cc/	.
.	.	4r	.	8e/	8ee/	.
.	.	.	.	8g/J	8gg/J	.
=32	=32	=32	=32	=32	=32	=32
4r	.	4r	.	4cc\	4ccc\	.
!LO:TX:a:t=arco	!	!	!	!	!	!
4C 4CC/	.	4cc 4e 4G/	.	4r	4r	.
*	*	*	*	*	*rep	*
!	!	!	!	!LO:TX:a:t=8va	!	!
4r	.	4r	.	4a/yy	4aa\	f
=33	=33	=33	=33	=33	=33	=33
2.r	.	2.r	.	8g#X/Lyy	8gg#X\L	.
.	.	.	.	8a/yy	8aa\	.
.	.	.	.	8gn/yy	8ggn\	.
.	.	.	.	8f/yy	8ff\	.
.	.	.	.	8e/yy	8ee\	.
.	.	.	.	8f/Jyy	8ff\J	.
=34	=34	=34	=34	=34	=34	=34
2.r	.	2.r	.	8e/Lyy	8ee\L	.
.	.	.	.	8d/yy	8dd\	.
.	.	.	.	8c#X/yy	8cc#X\	.
.	.	.	.	8d/yy	8dd\	.
.	.	.	.	8cn/yy	8ccn\	.
.	.	.	.	8B-X/Jyy	8b-X\J	.
*	*	*	*	*	*Xrep	*
=35	=35	=35	=35	=35	=35	=35
!	!	!	!	!LO:CL:ed	!	!
*	*	*	*	*clefF4	*	*
[2.A\	.	2.r	fp	[<2.A\	[>2.a/	.
=36	=36	=36	=36	=36	=36	=36
4A\]	.	2.r	.	2.e 2.c 2.A\]	2.a/]	.
(8c#X\L	.	.	.	.	.	.
8e\J	.	.	.	.	.	.
[4a\)	.	.	.	.	.	.
!!LO:PB:g=original
=37	=37	=37	=37	=37	=37	=37
4a\]	.	2.ryy	.	2.f 2.d\	(2.aa\	.
(8f\L	.	.	.	.	.	.
8d\J	.	.	.	.	.	.
4A\)	.	.	.	.	.	.
*	*	*	*	*clefG2	*	*
=38	=38	=38	=38	=38	=38	=38
2A\	.	4r	.	2.g 2.e 2.A/	4aa\)	.
*	*	*	*	*	*8va	*
.	.	4r	.	.	8ccc#X\L	.
.	.	.	.	.	8eee\J	.
(4e\	.	[4aa\	.	.	[4aaa\	.
=39	=39	=39	=39	=39	=39	=39
*	*	*	*	*^	*	*
2.f\	.	8aa\L]	.	2f/	2d\	4aaa\]	.
.	.	8ff\J	.	.	.	.	.
.	.	2dd\	.	.	.	8fff\L	.
.	.	.	.	.	.	8ddd\J	.
.	.	.	.	[4g 4d/	4B\	[4ggg\	.
=40	=40	=40	=40	=40	=40	=40	=40
2.e\	.	8gg\L	.	2g/]	2c\	4ggg\]	.
.	.	8ee\J	.	.	.	.	.
.	.	2cc\	.	.	.	8eee\L	.
.	.	.	.	.	.	8ccc\J	.
.	.	.	.	[4f/	4A\	[4fff\	.
=41	=41	=41	=41	=41	=41	=41	=41
(2.d\)	.	8ff\L	.	2f/]	2B\	4fff\]	.
.	.	8dd\J	.	.	.	.	.
.	.	2b\	.	.	.	8ddd\L	.
.	.	.	.	.	.	8bb\J	.
*	*	*	*	*clefF4	*	*	*
.	.	.	.	[4e 4B (<4G#X\	4ryy	[4eee\	.
*	*	*	*	*v	*v	*	*
=42	=42	=42	=42	=42	=42	=42
2c\	.	4ee\	.	2e] 2c 2A\)	4eee\]	.
.	.	4r	.	.	8ccc\L	.
.	.	.	.	.	8aa\	.
!	!	!LO:TX:b:t=cres-:problem:dynamics with extention lines	!LO:HP:t=cres:ext=cw	!LO:TX:b=2:t=cres-:problem:dynamics with extention lines	!	!LO:HP:b=2:t=cres:ext=cw
4B\)	.	[4ee^<\	<	[4e 4B (<4G#X\	8bb\	<
.	.	.	.	.	8eee\J	.
=43	=43	=43	=43	=43	=43	=43
4A\	.	2ee\]	.	4e] 4c 4A\)	8ccc\L	.
.	.	.	.	.	8aa\	.
(4G#X\	.	.	.	[4e 4d (<4G#X\	8bb\	.
.	.	.	.	.	8eee\	.
4A\)	.	[4ee^<\	.	4e] 4c 4A\)	8ccc\	.
.	.	.	.	.	8aa\J	.
=44	=44	=44	=44	=44	=44	=44
(4GG#X/	.	2ee\]	.	4g 4e 4G#X\	8bb\L	.
.	.	.	.	.	8eee\	.
4AA/)	.	.	.	4e 4c 4A\	8ccc\	.
.	.	.	.	.	8aa\	.
4GGn/	.	4cc#X\	.	4e 4A 4Gn\	8ccc#X\	.
.	.	.	.	.	8aa\J	.
=45	=45	=45	=45	=45	=45	=45
4FF#X/	.	4dd\	.	4d 4A 4F#X\	8ddd\L	.
.	.	.	.	.	8aa\	.
4FFn/	.	4cc#X\	[	4c 4A 4Fn\	8ddd#X\	[
.	.	.	.	.	8aa\	.
4EE/	.	4ee\	.	4c 4A 4E\	8eee\	.
.	.	.	.	.	8aa\J	.
*	*	*	*	*	*X8va	*
=46	=46	=46	=46	=46	=46	=46
*	*	*	*	*	*	*^
!	!	!	!	!	!	!	!LO:DY:b=2
2.DD#X/	.	4ff#X\	ff	2.c 2.A 2.D#X\	4ff#X\	ff	sf
.	.	2f#X/	fz	.	4aa\	.	.
.	.	.	.	.	4f#Xt/	.	.
*	*	*	*	*	*	*v	*v
=47	=47	=47	=47	=47	=47	=47
4EE/	.	4e/	.	2B 2G#X 2E\	2e/	.
4r	.	8g#X/L	p	.	.	.
.	.	8b/J	.	.	.	.
4r	.	4ee\	.	4EE/	4g#X 4e 4B/	p
=48	=48	=48	=48	=48	=48	=48
4BB/	.	2ff#X\	.	2EE/	(>2a 2d#X 2B'>/	.
8D#X/L	.	.	.	.	.	.
8F#X/J	.	.	.	.	.	.
4B\	.	4ryy	.	4EE/	4g 4d# 4B'>/)	.
=49	=49	=49	=49	=49	=49	=49
(2e\	.	4gg#X\	.	4E 4EE/	4g#X 4e 4B/	.
.	.	(8gg#'\L	.	4C#X/	4g# 4e 4c#X/	.
.	.	8ff#X'\	.	.	.	.
*clefG2	*	*	*	*	*	*
4gg#X\)	.	8ee'\	.	4C#/	4g# 4e 4c#/	.
.	.	8dd#X'\J	.	.	.	.
=50	=50	=50	=50	=50	=50	=50
(8aa'\L	.	8cc#X'/L	.	4AA/	4a 4f#X 4c/	.
8gg#X'\	.	8b'/	.	.	.	.
8ff#X'\	.	8a'/	.	4AA/	4a 4d#X 4B/	.
8ee'\J	.	8g#X'/	.	.	.	.
4dd#X\)	.	8f#X'/	.	4BB/	4a 4d# 4B/	.
.	.	8b'/J	.	.	.	.
=51	=51	=51	=51	=51	=51	=51
4ee\	.	4e/)	.	4E\	4g#X 4e 4B/	.
4r	.	8g#X/L	.	4E\	4g# 4e 4B/	.
.	.	8b/J	.	.	.	.
4r	.	4dd\	.	4E\	4g# 4e 4B/	.
=52	=52	=52	=52	=52	=52	=52
*	*	*	*	*rep	*	*
4b\	.	2.ff#X\	.	4E\	4g 4d#X 4B/	.
*	*	*	*	*	*rep	*
8dd#X\L	.	.	.	4E\	4g 4d# 4B/	.
*	*	*	*	*	*Xrep	*
8ff#X\J	.	.	.	.	.	.
*	*	*	*	*	*rep	*
4bb\	.	.	.	4E\	4g 4d# 4B/	.
*	*	*	*	*Xrep	*Xrep	*
=53	=53	=53	=53	=53	=53	=53
2.gg#X\	.	4gg#X\	.	4E\	4g#X 4e 4B/	.
.	.	(8gg#'\L	.	4C#X/	4g# 4e 4c#X/	.
.	.	8ff#X'\	.	.	.	.
.	.	8ee'\	.	4C#/	4g# 4e 4c#/	.
.	.	8dd#X'\J)	.	.	.	.
!!LO:LB:g=original
=54	=54	=54	=54	=54	=54	=54
8aa\L	.	8cc#X/L	.	4AA/	4a 4f#X 4c#X/	.
8gg#X\	.	8b/	.	.	.	.
8ff#X\	.	8a/	.	4BB/	4a 4d#X 4B/	.
8ee\J	.	8g#X/	.	.	.	.
4dd#X\	.	8f#X/	.	4BB/	4a 4d# 4B/	.
.	.	8b/J	.	.	.	.
=55	=55	=55	=55	=55	=55	=55
4ee\	.	4e/	.	2.E\	4g#X 4e 4B/	.
4r	.	8g#X/L	.	.	4r	.
.	.	8b/J	.	.	.	.
4r	.	4ee\	.	.	4r	.
*clefF4	*	*	*	*	*	*
=56	=56	=56	=56	=56	=56	=56
!	!	!	!	!	!	!LO:DY:b=2
4AA/	.	2.r	.	2.A 2.E 2.C 2.AA\	2.r	fz
8C/L	.	.	.	.	.	.
8E/J	.	.	.	.	.	.
4A\	.	.	.	.	.	.
=57	=57	=57	=57	=57	=57	=57
!	!	!	!	!LO:TX:a:t=6	!	!LO:DY:b=2
(2.B-X\	f	2.r	.	2.B-X 2.G 2.D\	4r	f
.	.	.	.	.	8ddd\L	.
.	.	.	.	.	8bb-X\	.
.	.	.	.	.	8ff\	.
.	.	.	.	.	8dd\J	.
=58	=58	=58	=58	=58	=58	=58
!	!	!LO:TX:b:t=P:problem:accentlike diminuendo	!	!LO:TX:b:t=7	!	!
2.A\	>]	2.f#X/	>]	2.c 2.A 2.D#X\	8cc\L	>
.	.	.	.	.	8bn\	.
.	.	.	.	.	8a\	.
.	.	.	.	.	8cc\	.
.	.	.	.	.	8b\	]
.	.	.	.	.	8a\J	.
=59	=59	=59	=59	=59	=59	=59
4G#X\)	p	4e/	p	2.B 2.G#X 2.E\	4g#X/	p
4r	.	8g#X/L	.	.	4r	.
.	.	8b/J	.	.	.	.
4r	.	4ee\	.	.	4r	.
=60	=60	=60	=60	=60	=60	=60
4AA/	f	2.r	.	2.A 2.E 2.C 2.AA\	2.r	.
8C/L	.	.	.	.	.	.
8E/J	.	.	.	.	.	.
4A\	.	.	.	.	.	.
=61	=61	=61	=61	=61	=61	=61
(2.B-X\	.	2.r	.	2.B-X 2.F 2.D\	4r	.
.	.	.	.	.	(8ddd\L	f
.	.	.	.	.	8bb-X\	.
.	.	.	.	.	8ff\	.
.	.	.	.	.	8dd\J	.
=62	=62	=62	=62	=62	=62	=62
!	!	!LO:TX:b:t=P:problem:accentlike diminuendo	!	!	!	!
2.A\)	>]	2.f#X/	>]	2.c 2.A 2.D#X\	8cc\L	>
.	.	.	.	.	8b\	.
.	.	.	.	.	8a\	.
.	.	.	.	.	8cc\	.
.	.	.	.	.	8b\	.
.	.	.	.	.	8a\J)	.
=63	=63	=63	=63	=63	=63	=63
[2.G#X\	p	[>2.e/	.	4B 4E\	4g#X/	]
*	*	*	*	*	*rep	*
!	!	!	!	!LO:TX:a:t=8va	!	!
.	.	.	.	8E\Lyy	8e/L	<
.	.	.	.	8G#y\Jyy	8g#/J	.
.	.	.	<	4B\yy	4b\	.
=64	=64	=64	=64	=64	=64	=64
2.G#X\_	.	2.e/_>	.	8G#X\Lyy	8g#X\L	.
.	.	.	.	8B\Jyy	8b\J	.
.	.	.	.	4e\yy	4ee\	.
.	.	.	.	8B\Lyy	8b\L	.
.	.	.	.	8e\Jyy	8ee\J	.
=65	=65	=65	=65	=65	=65	=65
2.G#\_	.	2.e/_>	[	4g#X\yy	4gg#X\	.
.	.	.	.	8e\Lyy	8ee\L	.
.	.	.	.	8g#\Jyy	8gg#\J	.
.	.	.	.	4b\yy	4bb\	[[
=66	=66	=66	=66	=66	=66	=66
2.G#\_	.	2.e/_>	.	8g#X\Lyy	8gg#X\L	[
.	.	.	.	8b\Jyy	8bb\J	.
.	.	.	.	4ee\yy	4eee\	.
*	*	*	*	*8va	*8va	*
.	.	.	.	8gg#\Lyy	8ggg#\L	.
.	.	.	.	8bb\Jyy	8bbb\J	.
=67	=67	=67	=67	=67	=67	=67
4G#\]	.	4e/]	ff	8eee\Lyy	8eeee\L	f
.	.	.	.	8bb\yy	8bbb\	.
4r	.	4r	.	8gg#X\yy	8ggg#X\	.
.	.	.	.	8ee\yy	8eee\	.
4r	.	4r	.	8b\yy	8bb\	.
.	.	.	.	8g#y\Jyy	8gg#y\J	.
*	*	*	*	*X8va	*X8va	*
=68	=68	=68	=68	=68	=68	=68
2.r	.	2.r	.	8ee\Lyy	8eee\L	.
.	.	.	.	8b\yy	8bb\	.
.	.	.	.	8g#X\yy	8gg#X\	.
.	.	.	.	8e\yy	8ee\	.
.	.	.	.	8B\yy	8b\	.
.	.	.	.	8G#y\Jyy	8g#y\J	.
=69	=69	=69	=69	=69	=69	=69
2.r	.	2.r	.	4E'/yy	4e'/	.
.	.	.	.	4e'\yy	4ee'\	.
.	p	.	.	4ryy	4r	.
=70	=70	=70	=70	=70	=70	=70
!LO:TX:b:t=pizz&colon;	!	!	!	!	!	!
4EE'/	.	2.r	.	4ryy	4r	.
4E'/	.	.	.	4ryy	4r	.
*	*	*	*	*clefG2	*Xrep	*
4r	.	.	.	4ee\	4eee\	.
=71	=71	=71	=71	=71	=71	=71
*	*	*	*	*	*rep	*
!	!	!	!	!LO:TX:a:t=8va	!	!
2.r	.	2.r	.	(8dd#X\Lyy	(8ddd#X\L	.
.	.	.	.	8ee\yy	8eee\	.
.	.	.	.	8ddn\yy	8dddn\	.
.	.	.	.	8cc\yy	8ccc\	.
.	.	.	.	8b\yy	8bb\	.
.	.	.	.	8cc\Jyy	8ccc\J	.
=72	=72	=72	=72	=72	=72	=72
2.ryy	.	2.ryy	.	8b/Lyy	8bb\L	.
.	.	.	.	8a/yy	8aa\	.
.	.	.	.	8g#X/yy	8gg#X\	.
.	.	.	.	8a/yy	8aa\	.
.	.	.	.	8gn/yy	8ggn\	.
.	.	.	.	8f/J)yy	8ff\J)	.
!!LO:LB:g=original
=73	=73	=73	=73	=73	=73	=73
2.ryy	.	2.ryy	.	[>2.e/yy	[2.ee\	.
=74	=74	=74	=74	=74	=74	=74
2.ryy	.	2.ryy	.	4e/]yy	4ee\]	.
.	.	.	.	8c/Lyy	8cc\L	.
.	.	.	.	8A/Jyy	8a\J	.
.	.	.	.	[>4E/yy	[>4e/	.
=75	=75	=75	=75	=75	=75	=75
2.ryy	.	2.ryy	.	4E/]yy	4e/]	.
.	.	.	.	8A/Lyy	8a/L	.
.	.	.	.	8c/Jyy	8cc/J	.
.	.	.	.	[>4e/yy	[4ee\	.
=76	=76	=76	=76	=76	=76	=76
2.ryy	.	2.ryy	.	8e/L]yy	8ee\L]	.
.	.	.	.	8d/yy	8dd\	.
.	.	.	.	8c/yy	8cc\	.
.	.	.	.	8B/yy	8b\	.
.	.	.	.	8c/yy	8cc\	.
.	.	.	.	8A/Jyy	8a\J	.
*	*	*	*	*	*Xrep	*
=77	=77	=77	=77	=77	=77	=77
!	!	!	!	!LO:CL:ed	!	!
*	*	*	*	*clefF4	*	*
2.ryy	.	2.ryy	.	2.E\	[>2.e/	.
=78	=78	=78	=78	=78	=78	=78
2.ryy	.	4r	.	2.D\	2.e_ 2.B/	.
.	.	(>8d#X'/L	.	.	.	.
.	.	8e'/	.	.	.	.
.	.	8f#X'/	.	.	.	.
.	.	8g#X'/J	.	.	.	.
=79	=79	=79	=79	=79	=79	=79
4r	.	4a/)	.	2.C/	2.e_ 2.A/	.
(8A'\L	.	4r	.	.	.	.
8B'\	.	.	.	.	.	.
8c'\	.	4r	.	.	.	.
8d'\J	.	.	.	.	.	.
=80	=80	=80	=80	=80	=80	=80
4e\)	.	4r	.	2.BB/	2.e] 2.d/	.
4r	.	(8dd#X'\L	.	.	.	.
.	.	8ee'\	.	.	.	.
!LO:N:vis=2	!	!	!	!	!	!
4r	.	8ff#X'\	.	.	.	.
.	.	8gg#X'\J	.	.	.	.
=81	=81	=81	=81	=81	=81	=81
2.r	.	4aa\)	.	2AA/	4e 4c/	.
.	.	4r	.	.	8g#X\L	.
.	.	.	.	.	8a\	.
.	.	4r	.	4G 4GG/	8b\	.
.	.	.	.	.	8cc#X\J	.
=82	=82	=82	=82	=82	=82	=82
!	!	!LO:TX:a:i:t=riten&colon;	!	!	!LO:TX:b:i:t=riten&colon;	!
2.r	.	2.r	.	2F 2FF/	4dd\	f
.	.	.	.	.	4a\	.
.	.	.	.	4D 4DD/	4ff 4dd 4a\	.
=83	=83	=83	=83	=83	=83	=83
*	*	*	*	*	*^	*
4C#X\	.	4a/	.	4C#X 4CC#X/	8aa/L	4ee 4a\	.
.	.	.	.	.	8gg/J	.	.
2D;\	<	2f;/	.	2D 2DD;/	2ff 2dd;/	2a;\	.
.	[	.	.	.	.	.	.
.	>	.	.	.	.	.	.
.	]	.	.	.	.	.	.
*	*	*	*	*	*v	*v	*
=84	=84	=84	=84	=84	=84	=84
!	!	!LO:TX:a:t=a tempo	!	!LO:TX:a:t=a tempo	!	!
4r	.	2.ryy	.	(2.B-X [2.F (2.D\	2.r	.
(8B-X'\L	.	.	.	.	.	.
8c'\	.	.	.	.	.	.
8d'\	.	.	.	.	.	.
8e-X'\J	.	.	.	.	.	.
=85	=85	=85	=85	=85	=85	=85
4f\)	.	4r	.	2.c 2.F_ 2.E-X\))	2.r	.
4r	.	(>8e'/L	.	.	.	.
.	.	8f'/	.	.	.	.
4r	.	8g'/	.	.	.	.
.	.	8a'/J)	.	.	.	.
=86	=86	=86	=86	=86	=86	=86
4r	.	4b-X/	.	2.B-X 2.F_ 2.D\	2.r	.
(8B-X'\L	.	4r	.	.	.	.
8c'\	.	.	.	.	.	.
8d'\	.	4r	.	.	.	.
8e-X'\J	.	.	.	.	.	.
=87	=87	=87	=87	=87	=87	=87
4f\)	.	2.r	.	2.c 2.F] 2.E\	4r	.
4r	.	.	.	.	(>8e'/L	.
.	.	.	.	.	8f'/	.
4r	.	.	.	.	8g'/	.
.	.	.	.	.	8a'/J	.
=88	=88	=88	=88	=88	=88	=88
*	*	*	*	*^	*^	*
2.ryy	.	2.r	.	4B-X 4F/	2.D\	2b-X/)	2.rg	.
.	.	.	.	2ryy	.	.	.	.
.	.	.	.	.	.	4a/	.	.
*	*	*	*	*v	*v	*	*	*
=89	=89	=89	=89	=89	=89	=89	=89
2.ryy	.	2.r	.	2.E\	2.g#X/	2e\	.
.	.	.	.	.	.	4d\	.
=90	=90	=90	=90	=90	=90	=90	=90
*	*	*	*	*	*	*^	*
2.ryy	.	2.r	.	2F\	2.a/	4rf	[<2.c\	.
.	.	.	.	.	.	4rf	.	.
.	.	.	.	4F#X\	.	[4e-X/	.	.
=91	=91	=91	=91	=91	=91	=91	=91	=91
2.r	.	4r	.	2G\	2g/	2.e-/_<	2.c\_<	.
.	.	(8cc\L	.	.	.	.	.	.
.	.	8dd\	.	.	.	.	.	.
.	.	8ee-X\	.	4A-X\	[4f#X/	.	.	.
.	.	8cc\J)	.	.	.	.	.	.
*	*	*	*	*	*	*v	*v	*
=92	=92	=92	=92	=92	=92	=92	=92
!	!	!	!	!LO:TX:a:t=P:problem:brak początku ligatury	!LO:TX:a:t=P:problem:brak początku ligatur	!	!
4r	.	4ff#X'\	.	[2.An\	2.f#_ 2.e-_< [<2.c/	2.c\]	.
(8A\L	.	4r	.	.	.	.	.
8B\	.	.	.	.	.	.	.
8c\)	.	4r	.	.	.	.	.
8A'\J	.	.	.	.	.	.	.
!!LO:PB:g=original
=93	=93	=93	=93	=93	=93	=93	=93
4AA/	.	2.ryy	.	2A\]	2f#] 2e-/]	2c\]	.
4r	.	.	.	.	.	.	.
4r	.	.	.	4A\	4f#X 4e-X/	4c\	.
=94	=94	=94	=94	=94	=94	=94	=94
2.ryy	.	2.ryy	.	2A#X\	(2g 2en^/	2c#X\	.
.	.	.	.	4B\	4g#X 4fn/	4d\	.
*	*	*	*	*	*v	*v	*
=95	=95	=95	=95	=95	=95	=95
2.ryy	.	2.ryy	.	2B#X\	2a 2f#X 2d#X/)	.
.	.	.	.	4c#X\	[4a [4f#/	.
=96	=96	=96	=96	=96	=96	=96
2.ryy	.	4r	.	2.d\	2.a_ 2.f#/_	.
.	.	(8a\L	p	.	.	.
.	.	8b\	.	.	.	.
.	.	8cc\)	.	.	.	.
.	.	8a'\J	.	.	.	.
=97	=97	=97	=97	=97	=97	=97
4r	.	4ff#X\	.	[2.d#X\	2.a_ 2.f#/]	.
(8A\L	p	4r	.	.	.	.
8B\)	.	.	.	.	.	.
8c'\	.	4r	.	.	.	.
8A'\J	.	.	.	.	.	.
=98	=98	=98	=98	=98	=98	=98
4AA/	.	2.ryy	.	2.d#_ [>2.c\	4a] 4f#X/	.
!	!	!	!	!	!LO:TX:b:t=cres-:problem:dynamics with extention lines	!LO:HP:t=cres:ext=cw
4r	.	.	.	.	8a\L	<
.	.	.	.	.	8b\	.
4r	.	.	.	.	8cc\	.
.	.	.	.	.	8a\J	.
=99	=99	=99	=99	=99	=99	=99
2.ryy	.	2.ryy	.	2.d#_ 2.c_ [2.A\	4ff#X\	.
.	.	.	.	.	8ff#\L	.
.	.	.	.	.	8gg#X\	.
.	.	.	.	.	8aa\	.
.	.	.	.	.	8ff#\J	[[
=100	=100	=100	=100	=100	=100	=100
4r	.	4r	.	4d#] 4c] 4A] 4F#X\	4ccc\	.
4DD#X/	.	4a\	ff	4c 4A 4F# 4D\	4aa 4a\	ff
4DD#/	.	4cc\	.	4c 4A 4F# 4D\	4ccc 4cc\	.
=101	=101	=101	=101	=101	=101	=101
4DD#X/	.	4ff#X\	.	4c 4A 4F#X 4D#X\	4fff#X 4ff#X'\	.
4DD#/	.	4aa\	.	4c 4A 4F# 4D#\	4aaa 4aa'\	.
4r	.	4r	.	4r	4r	.
=102	=102	=102	=102	=102	=102	=102
*	*	*	*	*	*	*^
.	.	.	.	.	8qee/	.	.
!	!	!	!	!	!	!LO:DY:b=2	!
4EE/	.	4aa 4cc 4e\	f	4EE/	(4eee\	f	f
4r	.	4r	.	4r	8ddd\L	.	.
.	.	.	.	.	8ccc#X\	.	.
4r	.	4r	.	4r	8cccn\	.	.
.	.	.	.	.	8bb\J	.	.
*	*	*	*	*	*	*v	*v
=103	=103	=103	=103	=103	=103	=103
2.r	.	2.ryy	.	4c 4A 4E\	8bb-X\L	.
.	.	.	.	.	8aa\	.
.	.	.	.	4r	8aa-X\	.
.	.	.	.	.	8gg\	.
.	.	.	.	4r	8ff#X\	.
.	.	.	.	.	8ffn\J)	.
=104	=104	=104	=104	=104	=104	=104
2.r	.	4ee\	f	4EE/	4ee\	.
.	.	(8dd'\L	.	4r	4r	.
.	.	8cc'\	.	.	.	.
.	.	8b'\	.	4r	4r	.
.	.	8a'\J	.	.	.	.
=105	=105	=105	=105	=105	=105	=105
2.r	.	8g#X'/L	.	2.d 2.B 2.E\	2.g#Xt/	.
.	.	8f'/	.	.	.	.
.	.	8e'/	.	.	.	.
.	.	8d'/	.	.	.	.
.	.	8c'/	.	.	.	.
.	.	8B'/J	.	.	.	.
.	.	.	.	.	16qqf#X/LL	.
.	.	.	.	.	16qqg#/JJ	.
=106	=106	=106	=106	=106	=106	=106
2.r	.	4A/)	.	4AA/	8a/L	fp
.	.	.	.	.	8e/	.
.	.	4r	.	(4c 4A\	8d#X/	.
.	.	.	.	.	8e/	.
.	.	4r	.	4E\)	8cc 8a/	.
.	.	.	.	.	8e/J	.
=107	=107	=107	=107	=107	=107	=107
2.r	.	2.r	.	4EE/	8bL 8g#X/	.
.	.	.	.	.	8e/	.
.	.	.	.	(4d 4G#X\	8d#X/	.
.	.	.	.	.	8e/	.
.	.	.	.	4E\)	8ee 8g#/	.
.	.	.	.	.	8e/J	.
=108	=108	=108	=108	=108	=108	=108
2.r	.	2.r	.	4AA/	8ccL 8a/	.
.	.	.	.	.	8e/	.
.	.	.	.	(4c 4A\	8d#X/	.
.	.	.	.	.	8e/	.
.	.	.	.	4E\)	8cc 8a/	.
.	.	.	.	.	8e/J	.
=109	=109	=109	=109	=109	=109	=109
2.r	.	2.r	.	4EE/	8bL 8g#X/	.
.	.	.	.	.	8e/	.
.	.	.	.	(4d 4G#X\	8d#X/	.
.	.	.	.	.	8e/	.
.	.	.	.	4E\)	8ee 8g#/	.
.	.	.	.	.	8e/J	.
!!LO:LB:g=original
=110	=110	=110	=110	=110	=110	=110
*	*	*	*	*	*^	*
2.r	.	2.r	.	4c 4A\	4ryy	8ccL 8a\	.
.	.	.	.	.	.	8a\J	.
.	.	.	.	4e 4A\	(4aa/	8cc#X\L	.
.	.	.	.	.	.	8a\	.
.	.	.	.	4f 4d\	4ff/	8dd\	.
.	.	.	.	.	.	8a\J	.
=111	=111	=111	=111	=111	=111	=111	=111
2.r	.	2.r	.	4d 4G\	4gg/	8b\L	.
.	.	.	.	.	.	8g\	.
.	.	.	.	4c 4A\	4ee/	8cc\	.
.	.	.	.	.	.	8ryy	.
.	.	.	.	4c#X 4F#X\	4ff#X/	8a#X\	.
.	.	.	.	.	.	8f#X\J	.
=112	=112	=112	=112	=112	=112	=112	=112
2.r	.	2.r	.	4d#X 4B\	(4dd#X/)	8b\L	.
.	.	.	.	.	.	8f#X\	.
.	.	.	.	4dn 4B\	4ddn/	8b\	.
.	.	.	.	.	.	8f#\	.
.	.	.	.	4B 4E\	4ee/	8g#X\	.
.	.	.	.	.	.	8e\J	.
=113	=113	=113	=113	=113	=113	=113	=113
2.r	.	2.r	.	4c 4A\	4cc/	8a\L	.
.	.	.	.	.	.	8e\	.
.	.	.	.	4D\	4b/	8f\	.
.	.	.	.	.	.	8d\	.
.	.	.	.	4E\	4g#X/	8e\	.
.	.	.	.	.	.	8d\J	.
=114	=114	=114	=114	=114	=114	=114	=114
!LO:TX:b:t=pizz&colon;	!	!	!	!	!	!	!
4AA/	.	4e/	.	4AA/	8a/L)	4c\	.
.	.	.	.	.	8e/	.	.
4r	.	8a/L	.	(4c 4A\	8d#X/	2ryy	.
.	.	8cc/J	.	.	8e/	.	.
4r	.	[4ee^<\	.	4E\)	8cc 8a/	.	.
.	.	.	.	.	8e/J	.	.
*	*	*	*	*	*v	*v	*
=115	=115	=115	=115	=115	=115	=115
4EE/	.	2ee\]	.	4EE/	8bL 8g#X/	.
.	.	.	.	.	8e/	.
4r	.	.	.	(4d 4G#X\	8d#X/	.
.	.	.	.	.	8e/	.
4r	.	4r	.	4E\)	8ee 8g#/	.
.	.	.	.	.	8e/J	.
=116	=116	=116	=116	=116	=116	=116
4AA/	.	4e/	.	4AA/	8ccL 8a/	.
.	.	.	.	.	8e/	.
4r	.	8a/L	.	(4c 4A\	8ryy	.
.	.	8cc/J	.	.	8d#X/	.
4r	.	[4ee^<\	.	4E'\)	8cc 8a/	.
.	.	.	.	.	8e/J	.
=117	=117	=117	=117	=117	=117	=117
4EE/	.	2ee\]	.	4EE/	8bL 8g#X/	.
.	.	.	.	.	8e/	.
4r	.	.	.	(4d 4G#X\	8d#X/	.
.	.	.	.	.	8e/	.
4r	.	4r	.	4E'\)	8ee 8g#/	.
.	.	.	.	.	8e/J	.
=118	=118	=118	=118	=118	=118	=118
*	*	*	*	*	*^	*
!LO:TX:a:t=arco	!	!	!	!	!	!	!
4AA/	.	(4a\	.	4c 4A\	4ryy	8ccL 8a\	.
.	.	.	.	.	.	8a\J	.
(4c#X\	.	4aa\	.	4e 4A\	(4aa/	8cc#X\L	.
.	.	.	.	.	.	8a\	.
[4d\	.	4ff\	.	4f 4d\	4ff/	8dd\	.
.	.	.	.	.	.	8a\J	.
=119	=119	=119	=119	=119	=119	=119	=119
4d\]	.	4gg\	.	4d 4G\	4gg/	8b\L	.
.	.	.	.	.	.	8g\	.
4cn\	.	4ee\	.	4e 4c\	4ee/	8cc\	.
.	.	.	.	.	.	8g\	.
4A#X\	.	4ff#X\	.	4c#X 4F#X\	4ff#X/	8a#X\	.
.	.	.	.	.	.	8f#X\J	.
=120	=120	=120	=120	=120	=120	=120	=120
2.B\	.	4dd#X\)	.	(<4d#X 4B\	4dd#X/	8b\L	.
.	.	.	.	.	.	8f#X\	.
.	.	(4ddn\	.	4dn 4A\)	4ddn/	8b\	.
.	.	.	.	.	.	8f#\	.
.	.	4ee\	.	4A 4E\	4ee/	8g#X\	.
.	.	.	.	.	.	8e\J	.
=121	=121	=121	=121	=121	=121	=121	=121
4A\)	.	4cc\	.	4c 4A\	4cc/	8a\L	.
.	.	.	.	.	.	8e\	.
4D\	.	4b\	.	4D\	4b/	8f\	.
.	.	.	.	.	.	8d\	.
[4E\	.	4g#X/	.	4E\	4g#X/	8e\	.
.	.	.	.	.	.	8d\J	.
=122	=122	=122	=122	=122	=122	=122	=122
*	*	*	*	*^	*	*	*
*	*	*	*	*	*	*	*tremolo	*
!	!	!	!	!LO:N:vis=2	!	!	!	!
4E\]	.	4a/	.	8AA/L	[2.AA\	(2.a/)	8c\L	.
.	.	.	.	8E/	.	.	8e\	.
8A\L	.	4r	.	8A/	.	.	8c\	.
8c\J	.	.	.	8E/	.	.	8e\	.
[4e^<\	.	4r)	.	8A/	.	.	8c\	.
.	.	.	.	8E/J	.	.	8e\J	.
=123	=123	=123	=123	=123	=123	=123	=123	=123
*	*	*	*	*tremolo	*	*	*	*
2e\]	.	4r	.	8B/L	2.AA\]	2.g#X/)	8d\L	.
.	.	.	.	8E/	.	.	8e\	.
.	.	(8dd#X\L	.	8B/	.	.	8d\	.
.	.	8ee\	.	8E/	.	.	8e\	.
4r	.	8ff#X\	.	8B/	.	.	8d\	.
.	.	8gg#X\J)	.	8E/J	.	.	8e\J	.
!!LO:LB:g=original
=124	=124	=124	=124	=124	=124	=124	=124	=124
!	!	!	!	!LO:N:vis=2	!	!	!	!
4E\	.	4aa\	.	8AA/L	[2.AA\	2.a/	8c\L	.
.	.	.	.	8E/	.	.	8e\	.
8A\L	.	4r	.	8A/	.	.	8c\	.
8c\J	.	.	.	8E/	.	.	8e\	.
[4e\	.	4r	.	8A/	.	.	8c\	.
.	.	.	.	8E/J	.	.	8e\J	.
=125	=125	=125	=125	=125	=125	=125	=125	=125
2e\]	.	4r	.	8B/L	2AA\]	2.g#X/	8d\L	.
.	.	.	.	8E/	.	.	8e\	.
.	.	(8dd#X\L	.	8B/	.	.	8d\	.
.	.	8ee\	.	8E/	.	.	8e\	.
4r	.	8ff#X\	.	8B/	4ryy	.	8d\	.
.	.	8gg#X\J)	.	8E/J	.	.	[>8e\J	.
*	*	*	*	*Xtremolo	*	*	*Xtremolo	*
*	*	*	*	*	*	*v	*v	*
=126	=126	=126	=126	=126	=126	=126	=126
*	*	*	*	*	*^	*	*
2.r	.	4aa\	.	[2.A/	2.AA\	2.AA/	[2.a 2.e] 2.c/	.
.	.	8ee\L	.	.	.	.	.	.
.	.	8cc\J	.	.	.	.	.	.
.	.	[>4a/	.	.	.	.	.	.
*	*	*	*	*	*v	*v	*	*
=127	=127	=127	=127	=127	=127	=127	=127
(8d\L	.	2.a/_>	.	2.A/_	2.D\	2.a_ 2.f 2.d/	.
8c#X\	.	.	.	.	.	.	.
8d\	.	.	.	.	.	.	.
8e\	.	.	.	.	.	.	.
8f'\	.	.	.	.	.	.	.
8d'\J)	.	.	.	.	.	.	.
=128	=128	=128	=128	=128	=128	=128	=128
4A\	.	4a/]	.	2.A/_	2.AA\	2.a_ 2.e 2.c/	.
4r	.	8e/L	.	.	.	.	.
.	.	8c/J	.	.	.	.	.
4r	.	4A/	.	.	.	.	.
=129	=129	=129	=129	=129	=129	=129	=129
(8D/L	.	[>2.A/	.	2.A/_	2D\	2.a] 2.f 2.d/	.
8C#X/	.	.	.	.	.	.	.
8D/	.	.	.	.	.	.	.
8E/)	.	.	.	.	.	.	.
8F'/	.	.	.	.	4ryy	.	.
!LO:TX:t=[segno]:problem:znak segno na kresce taktowej	!	!LO:TX:t=[segno]:problem:znak segno na kresce taktowej	!	!	!LO:TX:t=[segno]:problem:znak segno na kresce taktowej	!LO:TX:t=[segno]:problem:znak segno na kresce taktowej	!
8D'/J	.	.	.	.	.	.	.
=130||	=130||	=130||	=130||	=130||	=130||	=130||	=130||
*>C	*	*>C	*	*>C	*>C	*>C	*
!	!	!	!LO:HP:a:t=dim&colon;	!	!	!	!
[>2.AA/	.	2.A/_>	>	2A/]	2AA\	[2.a 2.e [2.c/	.
!	!	!	!	!	!	!	!LO:HP:t=dim&colon;
.	.	.	.	4r	4E\	.	>
*	*	*	*	*v	*v	*	*
=131	=131	=131	=131	=131	=131	=131
2.AA/_>	.	2.A/_>	.	(2AA'\	2.a_ [>2.e 2.c/_	.
.	.	.	.	4E'\)	.	.
=132	=132	=132	=132	=132	=132	=132
*	*	*	*	*	*	*^
!	!	!	!	!	!	!LO:DY:b=2	!
4AA/]	.	4A/]	.	(2AA/	4a] 4e] 4c/]	pp	pp
4r	.	4r	.	.	4r	.	.
4r	.	4r	.	4EE'/)	4r	.	.
*	*	*	*	*	*	*v	*v
=133	=133	=133	=133	=133	=133	=133
2.r	.	2.r	.	(>2AAA/	2.r	.
.	.	.	.	4EE/)	.	.
=134||	=134||	=134||	=134||	=134||	=134||	=134||
!!!OMD: Trio
*>D	*	*>D	*	*>D	*>D	*
*clefF4	*	*clefG2	*	*clefF4	*clefG2	*
*k[f#c#g#]	*	*k[f#c#g#]	*	*k[f#c#g#]	*k[f#c#g#]	*
*M3/4	*	*M3/4	*	*M3/4	*M3/4	*
*clefG2	*	*	*	*	*	*
([2.cc#\	.	([2.ee\	p	[2.AA [2.AAA/	(>4A/	p
!	!	!LO:TX:b:i:t=e deliciſsimo	!	!	!LO:TX:b:i:t=e leggiero	!
.	.	.	.	.	8c#/L	.
.	.	.	.	.	8e/J	.
.	.	.	.	.	4a'/)	.
=135	=135	=135	=135	=135	=135	=135
2.cc#\]	.	2.ee\]	.	2.AA] 2.AAA/]	(4aa\	.
.	.	.	.	.	8ccc#\L	.
.	.	.	.	.	8eee\J	.
.	.	.	.	.	4aaa'\)	.
=136	=136	=136	=136	=136	=136	=136
[2.dd\	.	[2.ff#\	.	[2.D [2.DD/	(4fff#\	.
.	.	.	.	.	8ddd\L	.
.	.	.	.	.	8aa\J	.
.	.	.	.	.	4ff#'\)	.
=137	=137	=137	=137	=137	=137	=137
2.dd\])	.	2.ff#\])	.	2.D] 2.DD/]	(4ff#\	.
.	.	.	.	.	8dd\L	.
.	.	.	.	.	8a\J	.
.	.	.	.	.	4f#'/)	.
=138	=138	=138	=138	=138	=138	=138
[>2.g#/	.	2.ee\	.	2.E 2.EE/	(4d/	.
.	.	.	.	.	8g#/L	.
.	.	.	.	.	8b/J	.
.	.	.	.	.	4dd'\)	.
=139	=139	=139	=139	=139	=139	=139
2.g#/]	.	2.dd\	.	2.E#X 2.EE#X/	(4dd\	.
.	.	.	.	.	8gg#\L	.
.	.	.	.	.	8bb\J	.
.	.	.	.	.	4ddd'\)	.
!!LO:PB:g=original
=140	=140	=140	=140	=140	=140	=140
[>2.a/	.	([2.cc#\	.	[2.F# [2.FF#/	4ccc#\	.
.	.	.	.	.	8aa\L	.
.	.	.	.	.	8ff#\J	.
.	.	.	.	.	4cc#\	.
=141	=141	=141	=141	=141	=141	=141
2.a/]	.	2.cc#\_	.	2F#] 2FF#/]	(8aa\L	.
.	.	.	.	.	8ff#\	.
.	.	.	.	.	8cc#\	.
.	.	.	.	.	8a\J	.
.	.	.	.	4r	4f#'/)	.
=142	=142	=142	=142	=142	=142	=142
!	!	!	!	!	!LO:TX:a:t=P:problem:dopisane dźwięki oktawę wyżej	!
(2.ee\	.	2.cc#\]	.	[2.F# [2.FF#/	(4e/	.
.	.	.	.	.	8a#X\L	.
.	.	.	.	.	8cc#X\J	.
.	.	.	.	.	4ee'\)	.
=143	=143	=143	=143	=143	=143	=143
2ff#\	.	2dd\)	.	2.F#] 2.FF#/]	(4ee\	.
.	.	.	.	.	8aa#X\L	.
.	.	.	.	.	8ccc#\J	.
4ee\	.	([4cc#\	.	.	4eee'\)	.
=144	=144	=144	=144	=144	=144	=144
[2.dd\	.	2.cc#\]	<	[2.B [2.BB/	(4fff#\	.
.	.	.	.	.	8ff#\L	.
.	.	.	.	.	8fff#\J	<
.	.	.	.	.	4ff#'\)	.
=145	=145	=145	=145	=145	=145	=145
2.dd\])	.	2.b\)	.	2.B] 2.BB/]	4ddd\	.
.	.	.	[	.	8bb\L	.
.	.	.	.	.	8ff#\J	.
.	.	.	.	.	4dd\	[
=146	=146	=146	=146	=146	=146	=146
(>2f#/	.	([2.b#X\	>	[2.D [2.DD/	(>4B#X/	.
.	.	.	.	.	8f#/L	>
.	.	.	.	.	8g#/J	.
4a/	.	.	.	.	4b#X/)	.
=147	=147	=147	=147	=147	=147	=147
2g#/	.	2.b#\]	.	2.D] 2.DD/]	4b#X\	.
.	.	.	]	.	8ff#\L	.
.	.	.	.	.	8gg#\J	.
4f#/)	.	.	.	.	4bb#X\	[
=148	=148	=148	=148	=148	=148	=148
2e#X/	.	2cc#\)	.	[2.C# 2.CC#/	(8ccc#\L	.
.	.	.	.	.	8gg#\	.
.	.	.	.	.	8ee#X\	.
.	.	.	.	.	8cc#\	.
4r	.	4r	.	.	8g#\	.
.	.	.	.	.	8e#y\J)	.
=149	=149	=149	=149	=149	=149	=149
2.r	.	2.r	.	8C#/L]	4c#/	.
.	.	.	.	8BB#X/	.	.
.	.	.	.	8C#/	4r	.
.	.	.	.	8BB#/	.	.
.	.	.	.	8C#/	4r	.
.	.	.	.	8BBn/J	.	.
=150	=150	=150	=150	=150	=150	=150
([2.cc#\	.	([2.ee\	.	[>2.AA/	(>4A/	.
.	.	.	.	.	8c#/L	.
.	.	.	.	.	8e/J	.
.	.	.	.	.	4a'>/)	.
=151	=151	=151	=151	=151	=151	=151
2.cc#\]	.	2.ee\]	.	2.AA/]	(4aa\	.
.	.	.	.	.	8ccc#\L	.
.	.	.	.	.	8eee\J	.
.	.	.	.	.	4aaa'\)	.
=152	=152	=152	=152	=152	=152	=152
[2.dd\	.	[2.ff#\	.	[2.D [2.DD/	(4fff#\	.
.	.	.	.	.	8ddd\L	.
.	.	.	.	.	8aa\J	.
.	.	.	.	.	4ff#'\)	.
=153	=153	=153	=153	=153	=153	=153
2.dd\])	.	2.ff#\])	.	2.D] 2.DD/]	(4ff#\	.
.	.	.	.	.	8dd\L	.
.	.	.	.	.	8a\J	.
.	.	.	.	.	4f#'/)	.
=154	=154	=154	=154	=154	=154	=154
(>[>2.g#/	.	(2.ee\	.	2.E 2.EE/	(>4d/	.
.	.	.	.	.	8g#/L	.
.	.	.	.	.	8b/J	.
.	.	.	.	.	4dd'\)	.
=155	=155	=155	=155	=155	=155	=155
2.g#/]	.	2.dd\	.	2.E#X 2.EE#X/	(4dd\	.
.	.	.	.	.	8gg#\L	.
.	.	.	.	.	8bb\J	.
.	.	.	.	.	4ddd'\)	.
=156	=156	=156	=156	=156	=156	=156
[>2.a/	.	[2.cc#\	.	[2.F# [2.FF#/	(4ccc#\	.
.	.	.	.	.	8aa\L	.
.	.	.	.	.	8ff#\J	.
.	.	.	.	.	4cc#'\)	.
=157	=157	=157	=157	=157	=157	=157
2.a/])	.	2.cc#\])	.	2F#] 2FF#/]	(8aa\L	.
.	.	.	.	.	8ee\	.
.	.	.	.	.	8cc#\	.
.	.	.	.	.	8a\J)	.
.	.	.	.	4r	4f#'/	.
=158	=158	=158	=158	=158	=158	=158
([2.ccn\	.	(2.aa\	.	[2.D#X [2.DD#X/	(4cn/	.
.	.	.	.	.	8f#/L	.
.	.	.	.	.	8a/J	.
.	.	.	.	.	4ccn'\)	.
=159	=159	=159	=159	=159	=159	=159
2.cc\]	.	2gg#\	.	2.D#] 2.DD#/]	(4cc#\	.
.	.	.	.	.	8ee\L	.
.	.	.	.	.	8aa\J	.
.	.	4ff#\)	.	.	4ccc#'\)	.
!!LO:LB:g=original
=160	=160	=160	=160	=160	=160	=160
2.cc#X\	.	(2.ee\	.	[2.E [2.EE/	(8ccc#X\L	.
.	.	.	.	.	8eee\	.
.	.	.	.	.	8ccc#\	.
.	.	.	.	.	8aa\J	.
.	.	.	.	.	4ee'\)	.
=161	=161	=161	=161	=161	=161	=161
*	*	*	*	*	*8va	*
*	*	*	*	*	*rep	*
2dd\	.	2dd\	.	2.E] 2.EE/]	(8cccc#X\L	.
.	.	.	.	.	8eeee\	.
.	.	.	.	.	8cccc#\	.
.	.	.	.	.	8aaa\J)	.
4ee\)	.	4cc#\)	.	.	4eee'\	.
*	*	*	*	*	*Xrep	*
=162	=162	=162	=162	=162	=162	=162
(2.dd\	.	(2.b\	.	[2.E [2.EE/	2.eeeTT\	.
=163	=163	=163	=163	=163	=163	=163
2ee\	.	2cc#\	.	2.E] 2.EE/]	2eee\	.
4dd\	.	4b\	.	.	16ddd#X\LL	.
.	.	.	.	.	16eee\	.
.	.	.	.	.	16fff#\	.
.	.	.	.	.	16ggg#\JJ	.
=164	=164	=164	=164	=164	=164	=164
[2.cc#\)	.	[2.a\)	.	[>2.AA/	8aaa\L	.
.	.	.	.	.	8eee\	.
.	.	.	.	.	8ccc#\	.
.	.	.	.	.	8aa\	.
.	.	.	.	.	8ee\	.
.	.	.	.	.	8cc#\J	.
=165	=165	=165	=165	=165	=165	=165
4cc#\]	.	4a\]	.	4AA/]	4a/	.
*	*	*	*	*	*X8va	*
4r	.	4r	.	4AAA/	4r	.
4r	.	4r	.	4r	4r	.
=166:|!|:	=166:|!|:	=166:|!|:	=166:|!|:	=166:|!|:	=166:|!|:	=166:|!|:
*>E	*	*>E	*	*>E	*>E	*
!	!	!LO:TX:b:i:t=espreſ	!	!LO:TX:t=P:problem:mixed beam	!	!
(2.g#/	.	(2.b\	.	8EE/L	4r	.
.	.	.	.	[8E\J	.	.
.	.	.	.	2E\]	(>8B/L	.
.	.	.	.	.	8e/	.
.	.	.	.	.	8g#/	.
.	.	.	.	.	8b/J)	.
=167	=167	=167	=167	=167	=167	=167
*	*	*	*	*rep	*	*
!	!	!	!	!LO:TX:t=P:problem:mixed beam	!	!
2.a/	.	2.ccn^<\	.	8EE/L	4r	.
.	.	.	.	[8E\J	.	.
.	.	.	.	2E\]	(>8cn/L	.
.	.	.	.	.	8e/	.
.	.	.	.	.	8a/	.
.	.	.	.	.	8cc#/J)	.
*	*	*	*	*Xrep	*	*
=168	=168	=168	=168	=168	=168	=168
!	!	!	!	!LO:TX:t=P:problem:mixed beam	!	!
2.g#/	.	2.b\	.	8EE/L	4r	.
.	.	.	.	[8E\J	.	.
.	.	.	.	2E\_	(8B/L	.
.	.	.	.	.	8e/	.
.	.	.	.	.	8g#/	.
.	.	.	.	.	8b/J	.
=169	=169	=169	=169	=169	=169	=169
2b\	.	2ee\	.	2E\]	8ee\L	.
.	.	.	.	.	8gg#\	.
.	.	.	.	.	8bb\	.
*	*	*	*	*	*8va	*
.	.	.	.	.	8eee\	.
4ee\)	.	4gg#\)	.	4r	8ggg#\	.
.	.	.	.	.	8bbb\J	.
=170	=170	=170	=170	=170	=170	=170
*	*	*^	*	*	*	*
*	*	*	*	*	*	*tremolo	*
([2.dd#X^<\	.	(((2gg#/	2.a^\	.	[2.BB [2.BBB/	8bb\L)	<
.	.	.	.	.	.	8bbb\	.
.	.	.	.	.	.	8bb\	.
.	.	.	.	.	.	8bbb\	.
.	.	4ff#'</))	.	.	.	8bb\	.
.	.	.	.	.	.	8bbb\J	[
*	*	*v	*v	*	*	*	*
=171	=171	=171	=171	=171	=171	=171
*	*	*	*	*	*rep	*
*	*	*^	*	*	*	*
2.dd#^<\]	.	(2gg#/	2.a^\	.	2.BB] 2.BBB/]	8bb\L	>
.	.	.	.	.	.	8bbb\	.
.	.	.	.	.	.	8bb\	.
.	.	.	.	.	.	8bbb\	.
.	.	4ff#'</)	.	.	.	8bb\	.
*	*	*	*	*	*	*8Xrep	*
.	.	.	.	.	.	8bbb\J	]
=172	=172	=172	=172	=172	=172	=172	=172
2ee\	.	2ee/)	2g#\	.	[2.E [2.EE/	(8ggg#\L	.
.	.	.	.	.	.	8eee\	.
.	.	.	.	.	.	8bb\	.
*	*	*	*	*	*	*X8va	*
!	!	!	!	!	!	!LO:TX:a:t=loco	!
.	.	.	.	.	.	8gg#\	.
4r)	.	4r	4ryy	.	.	8ee\	.
.	.	.	.	.	.	8b\J	.
*	*	*v	*v	*	*	*	*
=173	=173	=173	=173	=173	=173	=173
2.r	.	2.r	.	4E] 4EE/]	8gg#\L	.
.	.	.	.	.	8ee\	.
.	.	.	.	4r	8b\	.
.	.	.	.	.	8g#\	.
.	.	.	.	4r	8e\	.
.	.	.	.	.	8B\J)	.
=174	=174	=174	=174	=174	=174	=174
!LO:TX:b:i:t=espreſ&colon;	!	!	!	!LO:TX:t=P:problem:mixed beam	!	!
(2.b\	.	(>2.a/	.	8EE/L	4r	.
.	.	.	.	[8E\J	.	.
.	.	.	.	(2E\]	(>8B/L	.
.	.	.	.	.	8e/	.
.	.	.	.	.	8g#/	.
.	.	.	.	.	8b/J)	.
=175	=175	=175	=175	=175	=175	=175
!	!	!	!	!LO:TX:t=P:problem:mixed beam	!	!
2.ccn\	.	2.a/	.	8EE/L)	4r	.
.	.	.	.	[8E\J	.	.
.	.	.	.	2E\]	(>8cn/L	.
.	.	.	.	.	8f#/	.
.	.	.	.	.	8a/	.
.	.	.	.	.	8cc#/J)	.
=176	=176	=176	=176	=176	=176	=176
!	!	!	!	!LO:TX:t=P:problem:mixed beam	!	!
2.b\	.	[>2.g#/)	.	8EE/L	4r	.
.	.	.	.	[8E\J	.	.
.	.	.	.	2E\_	(>8A/L	.
.	.	.	.	.	8e/	.
.	.	.	.	.	8g#/	.
.	.	.	.	.	8b/J)	.
!!LO:LB:g=original
=177	=177	=177	=177	=177	=177	=177
2ee\	.	(>2g#/]	.	2E\]	8dd\L	.
.	.	.	.	.	8gg#\	.
.	.	.	.	.	8bb\	.
*	*	*	*	*	*8va	*
.	.	.	.	.	8eee\	.
4gg#\)	.	4e/)	.	4r	8ggg#\	.
.	.	.	.	.	8bbb\J	.
=178	=178	=178	=178	=178	=178	=178
(2gg#^<\	.	(>[2.d#X 2.A/	.	[2.BB [2.BBB/	8bb\L	.
.	.	.	.	.	8bbb\	.
.	.	.	.	.	8bb\	.
.	.	.	.	.	8bbb\	.
4ff#'\)	.	.	.	.	8bb\	.
.	.	.	.	.	8bbb\J	.
=179	=179	=179	=179	=179	=179	=179
!	!	!	!	!LO:N:vis=2	!	!
(2gg#^<\	.	2.d#] 2.A/	.	2.BB] 2.BBB/]	8aaa\L	.
.	.	.	.	.	8fff#\	.
.	.	.	.	.	8ddd#X\	.
*	*	*	*	*	*X8va	*
!	!	!	!	!	!LO:TX:a:t=loco	!
.	.	.	.	.	8bb\	.
4ff#'\)	.	.	.	.	8aa\	.
.	.	.	.	.	8ff#\J	.
=180	=180	=180	=180	=180	=180	=180
*	*	*	*	*^	*^	*
*	*	*	*	*	*	*	*^	*
4ee\	.	4e 4G#/)	.	4rA	(>8EE/	4ee\	4ryy	4ryy	<
.	.	.	.	.	8ryy	.	.	.	.
4r	.	4r	.	4A#X/	[2E\)	[2ee/	4gn/	8gn\L	.
.	.	.	.	.	.	.	.	8e\	.
4r	.	4r	.	4B/	.	.	4g#X/	8g#\	.
.	.	.	.	.	.	.	.	8e\J	[[
=181	=181	=181	=181	=181	=181	=181	=181	=181	=181
2.r	.	2.r	.	4cn/	2.E\]	2.ee/]	4a/	8a\L	>
.	.	.	.	.	.	.	.	8e\	.
.	.	.	.	4c#X/	.	.	4a#X/	8a#\	.
.	.	.	.	.	.	.	.	8e\	.
.	.	.	.	4d/	.	.	4b/	8b\	.
.	.	.	.	.	.	.	.	8e\J	]
*	*	*	*	*v	*v	*	*	*	*
*	*	*	*	*	*	*v	*v	*
=182	=182	=182	=182	=182	=182	=182	=182
([2.cc#\	.	([2.ee\	.	[2.A [2.AA/	4cc#/	(4a\	.
.	.	.	.	.	2ryy	8e/L	.
.	.	.	.	.	.	8a/J	.
.	.	.	.	.	.	4cc#'\)	.
*	*	*	*	*	*v	*v	*
=183	=183	=183	=183	=183	=183	=183
2.cc#\]	.	2.ee\]	.	2.A] 2.AA/]	(4aa\	.
.	.	.	.	.	8ccc#\L	.
.	.	.	.	.	8eee\J	.
.	.	.	.	.	4aaa'\)	.
=184	=184	=184	=184	=184	=184	=184
[2.dd\	.	[2.ff#\	.	[2.D [2.DD/	(4fff#\	.
.	.	.	.	.	8ddd\L	.
.	.	.	.	.	8aa\J	.
.	.	.	.	.	4ff#'\)	.
=185	=185	=185	=185	=185	=185	=185
2.dd\])	.	2.ff#\])	.	2.D] 2.DD/]	(4ff#\	.
.	.	.	.	.	8dd\L	.
.	.	.	.	.	8a\J	.
.	.	.	.	.	4f#'/)	.
=186	=186	=186	=186	=186	=186	=186
(>[>2.g#/	.	(2.ee\	.	(>2.E 2.EE/	(4d/	.
.	.	.	.	.	8g#/L	.
.	.	.	.	.	8b/J	.
.	.	.	.	.	4dd'\)	.
=187	=187	=187	=187	=187	=187	=187
2.g#/]	.	2.dd\	.	2.E#X 2.EE#X/	(4dd\	.
.	.	.	.	.	8gg#\L	.
.	.	.	.	.	8bb\J	.
.	.	.	.	.	4ddd'\)	.
=188	=188	=188	=188	=188	=188	=188
2.a/	.	2.cc#\)	.	2.F# 2.FF#/)	(4ccc#\	.
.	.	.	.	.	8aa\L	.
.	.	.	.	.	8ff#\J	.
.	.	.	.	.	4cc#'\)	.
=189	=189	=189	=189	=189	=189	=189
2.gn/	.	([2.aa\	.	2.En 2.EEn/	(4a\	.
.	.	.	.	.	8cc#\L	.
.	.	.	.	.	8ee\J	.
.	.	.	.	.	4aa'\)	.
=190	=190	=190	=190	=190	=190	=190
(>2f#/)	.	2aa\]	.	[2.D [2.DD/	(4aaa\	.
.	.	.	.	.	8fff#\L	.
.	.	.	.	.	8ddd\J	.
4a/	.	4ff#\	.	.	4aa'\)	.
=191	=191	=191	=191	=191	=191	=191
2.dd\	.	2dd\	.	2.D] 2.DD/]	(4fff#\	.
.	.	.	.	.	8ddd\L	.
.	.	.	.	.	8aa\J	.
.	.	4b\	.	.	4ff#'\)	.
=192	=192	=192	=192	=192	=192	=192
2cc#\)	.	2a\)	.	[2.E [2.EE/	4ee\	.
.	.	.	.	.	8aa\L	.
.	.	.	.	.	8ccc#\J	.
4r	.	4r	.	.	4eee\	.
=193	=193	=193	=193	=193	=193	=193
*	*	*	*	*	*8va	*
*	*	*	*	*	*rep	*
[2.ee^<\	.	[2.cc#^<\	.	2.E] 2.EE/]	4eee\	.
.	.	.	.	.	8aaa\L	.
.	.	.	.	.	8cccc#\J	.
.	.	.	.	.	4eeee\	.
*	*	*	*	*	*Xrep	*
=194	=194	=194	=194	=194	=194	=194
2.ee\]	.	2.cc#\]	.	[2.E [2.EE/	8eeee\L	.
.	.	.	.	.	8cccc#\	.
.	.	.	.	.	8aaa\	.
.	.	.	.	.	8eee\	.
.	.	.	.	.	8ccc#\	.
.	.	.	.	.	8aa\J	.
*	*	*	*	*	*X8va	*
!!LO:PB:g=original
=195	=195	=195	=195	=195	=195	=195
*>E1	*	*>E1	*	*>E1	*>E1	*
4dd\	.	(4b\	.	2.E] 2.EE/]	8eee\L	.
.	.	.	.	.	(8ee\	.
4ee\	.	4cc#\	.	.	8ee#X\	.
.	.	.	.	.	8ff#\	.
4dd\	.	4b\)	.	.	8ggn\	.
.	.	.	.	.	8gg#X\J	.
=196	=196	=196	=196	=196	=196	=196
!	!	!	!	!	!LO:TX:a:t=1a	!
[2.cc#\	.	[2.a\	.	[>2.AA/	8aa\L	.
.	.	.	.	.	8ee\	.
.	.	.	.	.	8cc#\	.
.	.	.	.	.	8a\	.
.	.	.	.	.	8e\	.
.	.	.	.	.	8c#\J	.
=197	=197	=197	=197	=197	=197	=197
4cc#\]	.	4a\]	.	4AA/]	4A/)	.
4r	.	4r	.	4AAA/	4r	.
4r	.	4r	.	4r	4r	.
=198:|!	=198:|!	=198:|!	=198:|!	=198:|!	=198:|!	=198:|!
*>E2	*	*>E2	*	*>E2	*>E2	*
*	*	*	*	*	*8va	*
(2.ee\	.	2.cc#\)	.	2.E 2.EE/	(8eeee\L	.
.	.	.	.	.	8cccc#\	.
.	.	.	.	.	8aaa\	.
!	!	!	!	!	!LO:TX:a:t=2da	!
.	.	.	.	.	8eee\	.
.	.	.	.	.	8ccc#\	.
.	.	.	.	.	8aa\J	.
*	*	*	*	*	*X8va	*
=199	=199	=199	=199	=199	=199	=199
!	!	!	!	!	!LO:TX:a:t=loco	!
4dd\	.	(4b\	.	2.E#X 2.EE#X/	8ddd\L	.
.	.	.	.	.	8bb\	.
4ee\	.	4cc#\	.	.	8gg#\	.
.	.	.	.	.	8dd\	.
4dd\)	.	4b\)	.	.	8gg#\	.
.	.	.	.	.	8bb\J)	.
=200	=200	=200	=200	=200	=200	=200
*>F	*	*>F	*	*>F	*>F	*
([2.cc#\	.	([2.a\	.	[2.F# [2.FF#/	(8aa\L	.
.	.	.	.	.	8gg#\	.
.	.	.	.	.	8aa\	.
.	.	.	.	.	8ff#\	.
.	.	.	.	.	8cc#\	.
.	.	.	.	.	8a\J)	.
=201	=201	=201	=201	=201	=201	=201
2.cc#\]	.	2.a\]	.	2.F#] 2.FF#/]	(>8a/L	.
.	.	.	.	.	8g#/	.
.	.	.	.	.	8a/	.
.	.	.	.	.	8f#/	.
.	.	.	.	.	8c#/	.
.	.	.	.	.	8A/J)	.
=202	=202	=202	=202	=202	=202	=202
[2.ccn\	.	[>2.f#/	.	[2.D#X [2.DD#X/	(8aa\L	.
.	.	.	.	.	8gg#\	.
.	.	.	.	.	8aa\	.
.	.	.	.	.	8ff#\	.
.	.	.	.	.	8ccn\	.
.	.	.	.	.	8a\J)	.
=203	=203	=203	=203	=203	=203	=203
2.cc\]	.	2.f#/])	.	2.D#] 2.DD#/]	(>8a/L	.
.	.	.	.	.	8g#/	.
.	.	.	.	.	8a/	.
.	.	.	.	.	8f#/	.
.	.	.	.	.	8cn/	.
.	.	.	.	.	8A/J)	.
=204	=204	=204	=204	=204	=204	=204
(2.cc#X\)	.	(>2.e/	.	[2.E [2.EE/	(>8e/L	.
.	.	.	.	.	8c#X/	.
.	.	.	.	.	8A/	.
.	.	.	.	.	8c#/	.
.	.	.	.	.	8e/	.
.	.	.	.	.	8c#/J	.
=205	=205	=205	=205	=205	=205	=205
[>2.a/	.	2.c#/	.	2.E_ 2.EE/_	8a/L	.
.	.	.	.	.	8e/	.
.	.	.	.	.	8a/	.
.	.	.	.	.	8cc#/	.
.	.	.	.	.	8ee/	.
.	.	.	.	.	8aa/J)	.
=206	=206	=206	=206	=206	=206	=206
2.a/]	.	[>2.B/	.	2.E_ 2.EE/_	(8bb\L	.
.	.	.	.	.	8ee\	.
.	.	.	.	.	8aa\	.
.	.	.	.	.	8bb\	.
.	.	.	.	.	8eee\	.
.	.	.	.	.	8bb\J	.
=207	=207	=207	=207	=207	=207	=207
2.g#/)	.	2.B/])	.	2.E] 2.EE/]	8gg#\L	.
.	.	.	.	.	8ee\	.
.	.	.	.	.	8dd\	.
.	.	.	.	.	8b\	.
.	.	.	.	.	8g#\	.
.	.	.	.	.	8e\J	.
=208	=208	=208	=208	=208	=208	=208
[>2.a/	.	[>2.c#/	<	[2.AA [2.AAA/	(8a/L)	.
.	.	.	.	.	8e/	.
.	.	.	.	.	8c#/	.
.	.	.	.	.	8A/	<
.	.	.	.	.	8c#/	.
.	.	.	.	.	8e/J	.
=209	=209	=209	=209	=209	=209	=209
2.a/_>	.	2.c#/_>	.	2.AA_ 2.AAA/]	8a/L	.
.	.	.	[	.	8e/	.
.	.	.	.	.	8cc#/	.
.	.	.	.	.	8a/	.
.	.	.	.	.	8ee/	[
.	.	.	.	.	8cc#/J	.
=210	=210	=210	=210	=210	=210	=210
2.a/_>	.	2.c#/_>	> ]	2.AA_ 2.AAA/	8aa\L	.
.	.	.	.	.	8ee\	>
.	.	.	.	.	8cc#\	.
.	.	.	.	.	8a\	.
.	.	.	.	.	8cc#\	.
.	.	.	.	.	8ee\J	.
=211	=211	=211	=211	=211	=211	=211
2.a/_>	.	2.c#/_>	.	2.AA_ [2.AAA/	8aa\L	.
.	.	.	.	.	8ee\	.
.	.	.	.	.	8ccc#\	.
.	.	.	.	.	8aa\	.
.	.	.	.	.	8eee\	.
.	.	.	.	.	8ccc#\J)	]
!!LO:LB:g=original
=212	=212	=212	=212	=212	=212	=212
!	!	!LO:TX:t=P:problem:brak zakończenia ligatury	!	!	!	!
4a/]	.	4c#/]	p	4AA] 4AAA/]	4aaa\	.
4r	.	4r	.	4r	4r	.
*	*	*	*	*clefG2	*	*
4r	.	4r	.	4ee'\	4eee'\	.
=213	=213	=213	=213	=213	=213	=213
2.r	.	4r	.	4a\	4aa'\	.
.	.	4r	.	4r	4r	.
.	.	(>4e'>/	p	4r	4r	.
*clefF4	*	*	*	*	*	*
=214	=214	=214	=214	=214	=214	=214
4r	.	4A'>/)	.	2.r	2.r	.
4r	.	4r	.	.	.	.
(4E\	pp	4r	.	.	.	.
=	=	=	=	=	=	=
4AA/)	.	4r	.	4r	4r	.
!	!	!	!	!	!LO:TX:b:t=D&colon;C m \ne poi la Coda\nal Segno	!
4r	.	4r	.	4r	4r	.
=215||	=215||	=215||	=215||	=215||	=215||	=215||
*>G	*	*>G	*	*>G	*>G	*
*k[fncngn]	*	*k[fncngn]	*	*k[fncngn]	*k[fncngn]	*
!	!	!	!	!LO:CL:ed	!	!
*	*	*	*	*clefF4	*	*
*	*	*	*	*^	*	*
!	!	!	!	!	!	!LO:TX:a:t=P:problem:brak znaków przykluczowych	!
!	!	!LO:TX:a:t=Coda	!	!	!	!LO:TX:a:t=Coda	!
4AA/	.	4A/	p	2A/	[2.AA\	(>2.a [>2.e [2.c#X/	p
4r	.	4r	.	.	.	.	.
4r	.	4r	.	4ryy	.	.	.
=216	=216	=216	=216	=216	=216	=216	=216
2.r	.	(8a'\L	.	2.ryy	2.AA\_	2.g) 2.e] 2.c#/]	.
.	.	8g#'\	.	.	.	.	.
.	.	8a'\	.	.	.	.	.
.	.	8b'\	.	.	.	.	.
.	.	8cc#'\	.	.	.	.	.
.	.	8a'\J)	.	.	.	.	.
*clefG2	*	*	*	*	*	*	*
=217	=217	=217	=217	=217	=217	=217	=217
([2.dd\	.	4dd\	.	2.ryy	2.AA\_	2.f#X [>2.d [2.A/	.
.	.	4r	.	.	.	.	.
.	.	4r	.	.	.	.	.
=218	=218	=218	=218	=218	=218	=218	=218
2.dd\]	.	(8dd'\L	.	2.ryy	2.AA\_	2.fn 2.d] 2.A/]	.
.	.	8cc#'\	.	.	.	.	.
.	.	8dd'\	.	.	.	.	.
.	.	8ee'\	.	.	.	.	.
.	.	8ff'\	.	.	.	.	.
.	.	8dd'\J	.	.	.	.	.
=219	=219	=219	=219	=219	=219	=219	=219
2.cc#X\	.	4aa\)	.	2.ryy	2.AA\_	[2.e [2.A/	.
.	.	4r	.	.	.	.	.
.	.	4r	.	.	.	.	.
=220	=220	=220	=220	=220	=220	=220	=220
2.ccn\)	.	2.r	.	2.ryy	2.AA\]	2.e] 2.A/]	.
*	*	*	*	*v	*v	*	*
=221	=221	=221	=221	=221	=221	=221
!LO:TX:b:t=poco cres_:problem:dynamics with extention lines:pod koniec pośrodku	!	!	!	!LO:TX:b=2:t=poco cres_:problem:dynamics with extention lines:pod koniec pośrodku	!	!LO:HP:b=2:t=poco cres_:ext=uw
([2.ff\	<	2.r	.	2.F 2.FF/	[2.f 2.c 2.A/	<
=222	=222	=222	=222	=222	=222	=222
4ff\]	.	2.r	.	(>2.BB-X 2.BBB-X/	(>2.f] 2.d [2.B-X/	.
4dd\	.	.	.	.	.	.
4b-X\)	.	.	.	.	.	.
=223	=223	=223	=223	=223	=223	=223
([2.gg\	.	2.r	.	8E-XL 8EE-X/)	[2.g 2.e-X 2.B-/])	.
.	.	.	.	8D/	.	.
.	.	.	.	8E-/	.	.
.	.	.	.	8F/	.	.
.	.	.	.	8G/	.	.
.	.	.	.	8E-/J	.	.
=224	=224	=224	=224	=224	=224	=224
!	!	!	!	!	!LO:TX:a:t=P:problem:brak początku łuków i ligatury	!
4gg\]	.	2.r	.	2.C/	(2.g] (>2.en [2.c/	.
4ee\	.	.	.	.	.	.
4cc\)	.	.	.	.	.	.
!!LO:LB:g=original
=225	=225	=225	=225	=225	=225	=225
!	!	!	!	!	!LO:S:s=2:note:problem:note-level slur	!
[2.aa\	.	2.r	.	8F\L	[2.a) (2.f) 2.c/]	.
.	.	.	.	8E\	.	.
.	.	.	.	8F\	.	.
.	.	.	.	8G\	.	.
.	.	.	.	8A\	.	.
.	.	.	.	8F\J	.	.
=226	=226	=226	=226	=226	=226	=226
4aa\]	.	2.r	.	2.D\	2.a] 2.f#) [2.d/	.
4ff#X\	.	.	.	.	.	.
4dd\	.	.	.	.	.	.
=227	=227	=227	=227	=227	=227	=227
[2.bb-X\	.	2.r	.	8G\L	[2.b-X [>2.g 2.d/]	.
.	.	.	.	8F#\	.	.
.	.	.	.	8G\	.	.
.	.	.	.	8A\	.	.
.	.	.	.	8B-X\	.	.
.	.	.	.	8G\J	.	[[
=228	=228	=228	=228	=228	=228	=228
4bb-\]	.	2.r	.	2.E-X\	2.b-] 2.g] [2.e-X/	.
4gg\	.	.	.	.	.	.
4ee-X\	[	.	.	.	.	.
=229	=229	=229	=229	=229	=229	=229
*	*	*	*	*	*	*^
!	!	!	!	!LO:SIC:v:n=2:s=2.AA-	!	!	!LO:DY:b=2
2.ccc\	.	[2.ccc\	f <	[2.A-X [2.AA/	[2.cc [>2.a-X 2.e-/_	f	f <
*	*	*	*	*	*	*v	*v
*clefF4	*	*	*	*	*	*
=230	=230	=230	=230	=230	=230	=230
!	!	!	!	!LO:SIC:v:n=2:s=2.AA-	!	!
(8AA-X/L	.	2.ccc\]	.	2.A-] 2.AA/]	2.cc] 2.a-] 2.g-X 2.e-/]	[
8GG/	.	.	.	.	.	.
8AA-/)	.	.	.	.	.	.
8BB-X'/	.	.	[	.	.	.
8C'/	.	.	.	.	.	.
8AA-'/J	.	.	.	.	.	.
=231!|:	=231!|:	=231!|:	=231!|:	=231!|:	=231!|:	=231!|:
*>H	*	*>H	*	*>H	*>H	*
!LO:TX:b:t=bis	!	!	!	!	!LO:TX:a:t=bis	!
[>2.D-X/	.	(<[2.ddd-X\	ff	[2.D-X [2.DD-X/	[2.dd-X [2.a-X [2.f [2.d-X/	ff
=232:|!	=232:|!	=232:|!	=232:|!	=232:|!	=232:|!	=232:|!
*>I	*	*>I	*	*>I	*>I	*
!	!	!	!LO:HP:t=dim	!	!	!LO:S:problem:note-level slur
2.D-/]	.	(>2.ddd-\])	>	(2.D-] (2.DD-/]	2.dd-] (2.a-] (2.f] (2.d-/]	>
=233	=233	=233	=233	=233	=233	=233
(8c#X'\L	.	[2.ccc#X\	.	2.C#X 2.CC#X/))	2.g#) 2.e#) 2.c#/	]
8d'\	.	.	.	.	.	.
8c#'\	.	.	.	.	.	.
8B'\	.	.	.	.	.	.
8A'\	.	.	.	.	.	.
8G#X'\J)	.	.	.	.	.	.
=234	=234	=234	=234	=234	=234	=234
2.F#X\	.	2.ccc#\_	p	[2.F#X [2.FF#X/	[2.a [2.f#X [2.c#X/	p
=235	=235	=235	=235	=235	=235	=235
!	!	!LO:TX:b:t=cres-:problem:dynamics with extention lines	!LO:HP:b:t=cres:ext=cd	!	!LO:TX:b:t=cres-:problem:dynamics with extention lines	!LO:HP:b:t=cres:ext=cw
(8F#\L	.	2.ccc#\]	<	2.F#_ 2.FF#/_	2.a] 2.f#] 2.c#/]	<
8E#X\)	.	.	.	.	.	.
8F#'\	.	.	.	.	.	.
8G#X'\	.	.	.	.	.	.
8A'\	.	.	.	.	.	.
8F#'\J	.	.	.	.	.	.
=236	=236	=236	=236	=236	=236	=236
(>2.FF#X/	.	2.ddd\	.	2.F#] 2.FF#/]	[2.a 2.d [2.A/	.
=237	=237	=237	=237	=237	=237	=237
2.FFn/	.	2.ddd#X\	[[	2.Fn 2.FFn/	2.a_ [2.cn 2.A/]	[
=238	=238	=238	=238	=238	=238	=238
4EE/)	.	(4eee\)	f	4E 4EE/	4a] 4c] 4A/	f
4r	.	4bb\	.	4r	4r	.
!	!	!	!LO:HP:t=dim	!	!	!
4r	.	4ccc#\	>	4r	4r	.
=239	=239	=239	=239	=239	=239	=239
2.r	.	4gg#X\	.	2.r	2.r	.
.	.	4aa\	.	.	.	.
.	.	4dd#X\)	.	.	.	.
=240	=240	=240	=240	=240	=240	=240
!	!	!	!	!LO:N:vis=2.	!	!
2.r	.	2ee\	p	2E 2EE/	4r	p
.	.	.	.	.	(>4e 4c 4A'>/	.
.	.	(4a/	.	4r	4e 4c 4A'>/)	.
=241	=241	=241	=241	=241	=241	=241
2.r	.	2cc#^<\	.	2E 2EE/	4r	.
.	.	.	.	.	(>4e 4d 4G#X'>/	.
.	.	4b\	.	4r	4e 4d 4G#'>/)	.
=242	=242	=242	=242	=242	=242	=242
2.r	.	4a\	.	[2.AA [2.AAA/	[2.e 2.c 2.A/	.
.	.	4r)	.	.	.	.
.	.	4r	.	.	.	.
!!LO:PB:g=original
=243	=243	=243	=243	=243	=243	=243
(8e'\L	.	2.r	.	2.AA_ 2.AAA/_	2.e_ 2.d 2.G#X/	.
8f#'\	.	.	.	.	.	.
8e'\	.	.	.	.	.	.
8d'\	.	.	.	.	.	.
8c#'\	.	.	.	.	.	.
8B'\J	.	.	.	.	.	.
=244	=244	=244	=244	=244	=244	=244
*	*	*	*	*rep	*	*
4A\)	.	2.r	.	2.AA_ 2.AAA/_	2.e_ 2.c 2.A/	.
4r	.	.	.	.	.	.
4r	.	.	.	.	.	.
*	*	*	*	*Xrep	*	*
=245	=245	=245	=245	=245	=245	=245
*	*	*	*	*	*^	*
*	*	*	*	*rep	*	*	*
(8E'\L	.	2.r	.	2.AA] 2.AAA/]	2.e] 2.G#</	2.d\	.
8F#'\	.	.	.	.	.	.	.
8E'\	.	.	.	.	.	.	.
8D'\	.	.	.	.	.	.	.
8C#'\	.	.	.	.	.	.	.
8BB'\J	.	.	.	.	.	.	.
*	*	*	*	*Xrep	*	*	*
*	*	*	*	*	*v	*v	*
=246	=246	=246	=246	=246	=246	=246
4AA/)	.	2.r	.	(>2AAA'>\	[2.e [>2.c# [<2.A</	.
4r	.	.	.	.	.	.
4r	.	.	.	4EE'>\	.	.
=247	=247	=247	=247	=247	=247	=247
2.r	.	2.r	.	2AA'>\	2.e] 2.c#] 2.A</]	.
.	.	.	.	4EE'>\)	.	.
=248	=248	=248	=248	=248	=248	=248
2.r	.	2.ryy	.	(>2AAA'>\	[2.c#X< [2.A< [<2.E</	.
.	.	.	.	4EE'>\	.	.
=249	=249	=249	=249	=249	=249	=249
2.r	.	2.ryy	.	2AA'>\	2.c#<] 2.A<] 2.E</]	.
.	.	.	.	4EE'>\)	.	.
=250	=250	=250	=250	=250	=250	=250
!	!LO:DY:a	!	!	!	!	!
[>2.AA/	pp	4r	.	2.AAA\	[2.A< [2.E< [<2.C#</	.
!	!	!	!LO:DY:a	!	!	!
.	.	(8cc#X\L	pp	.	.	.
.	.	8a'\J	.	.	.	.
.	.	[4cc#\	.	.	.	.
=251	=251	=251	=251	=251	=251	=251
2.AA/_>	.	4cc#\]	.	2.EE\	2.A<_ 2.E<_ 2.C#</_<	.
.	.	8a/L	.	.	.	.
.	.	8e'/J	.	.	.	.
.	.	[>4a/	.	.	.	.
=252	=252	=252	=252	=252	=252	=252
2.AA/_>	.	4a/])	.	2.AA\	2.A<_ 2.E<_ 2.C#</_<	.
.	.	(>8e/L	.	.	.	.
.	.	8c#X'/J	.	.	.	.
.	.	[>4e/	.	.	.	.
=253	=253	=253	=253	=253	=253	=253
2.AA/_>	.	4e/]	.	2.EE\	2.A<] 2.E<] 2.C#</]	.
.	.	8c#/L	.	.	.	.
.	.	8A'/J	.	.	.	.
.	.	4c#/	.	.	.	.
=254	=254	=254	=254	=254	=254	=254
!	!	!	!	!	!LO:TX:t=P:problem:mixed beam	!
4AA/]	.	4A/)	f	8AAA\L	(8AA</L	f
.	.	.	.	8CC#X\	8C#X</	.
!	!	!	!	!LO:TX:b=2:t=Vivace	!	!
4r	.	4r	.	8EE\	8E</	.
.	.	.	.	8AA\	8A</	.
4r	.	4r	.	8C#X\	8c#X\	.
.	.	.	.	8E\J	8e\J	.
*	*	*	*	*clefG2	*	*
=255	=255	=255	=255	=255	=255	=255
2.r	.	2.r	.	8A/L	8a\L	.
.	.	.	.	8c#X/	8cc#X\	.
.	.	.	.	8e/	8ee\	.
.	.	.	.	8a/	8aa\	.
.	.	.	.	8cc#X/	8ccc#X\	.
.	.	.	.	8ee/J	8eee\J	.
=256	=256	=256	=256	=256	=256	=256
2ryy	.	4r	.	4aa\	4aaa'\)	.
.	.	4r	.	4r	4r	.
*	*	*	*	*clefF4	*	*
4E\	.	4gg#X 4b 4e\	f	4E 4EE/	4eee 4bb 4gg#X 4ee\	.
=257	=257	=257	=257	=257	=257	=257
4AA/	.	4aa 4cc#X 4e\	.	4AA 4AAA/	4ccc#X 4aa 4ee\	.
4r	.	4r	.	4r	4r	.
4r	.	4r	.	4r	4r	.
==	==	==	==	==	==	==
*-	*-	*-	*-	*-	*-	*-
!!!system-decoration: {(s1,s2)}(s3,s4)
!!!RDF**kern: > = above
!!!RDF**kern: < = below
!!!ENC: Marta Lawrence
!!!END: 2021-04-16
!!!ENC: Tomasz Grochalski
!!!END: 2021-04-15
